X:751
T:Arkle Mountain, The
C:Anthony Sullivan
R:reel
Z:id:hn-reel-557
M:C|
K:Dmix
Ad~d2 AGFG|Adde gc~c2|Ad~d2 efge|afge fde^c|
Ad~d2 AGFG|Adde gc~c2|dBcA BGAF|GBAG FDD2:|
|:~a3f ~g3e|dfed ^cA~A2|~a3f ~g3e|dfaf defg|
~a3f ~g3e|dfed ^cAFG|AddB c2cA|GBAG FDD2:|



Xiraldilla
C:Tradicional
S:Música Tradicional Asturiana, (C) Tello & Tito. Asturies, 2001.
S:http://pagina.de/MusTradAst <telloytito@asturies.org>
N:LA menor armónica
O:Braña Escardén (Tinéu)
A:Asturies
Z:ByD IDEA
M:2/4
L:1/8
Q:1/4=104
K:Am
EE|: A2 Bc|B2 A2|cB A^G|A z EE :|



